X: 26994
T: Miss Erskine Wade
R: jig
M: 6/8
K: Gmajor
|:D|GBd B2G|EAG F2D|GBd efg|fac B2f|
gbB ceA|EAG F2D|ceA BdG|EAF G2:|
|:B/c/|d>cB gfg|eag f2d|gbB cBc|AdG F2D|
GBD CEA|c>Bc DBc|dgb EAc|DAF G2:|

